!!! OTL: Literature129
!!! Chapter: 5
!!! Section: IV
!!! Page: 375
!!! Mode: 
!!! Encoder: DJB
**kern
*staff1
*I"Piano
=1-
*clefG2
*k[b-e-a-]
*E-:
*M3/4
4ee-\
4dd\
4cc\
=2
4.b-\
8a-/
8g/L
16.a-/L
32f/JJk
=3
4e-/
8d/L
8e-/J
8f/L
16g/L
16an/JJ
=4
4an/
4b-\
8..bn\L
32cc\Jkk
=5
8cc\
[4.f/
16f/LL]
16f/
16g/
16a-/JJ
=6
8a-/
4d/
8e-/
16f/LL
16g/
16a-/
16cc/JJ
=7
8cc\
4b-\
16.cc\LL
32b-\JJk
8b-\L
16.cc\L
32b-\JJk
=8
!!linebreak:original
4ee-\
2r
==
*-
